src/img/icons/i-clock.svg

<svg width="32" height="32" viewBox="0 0 32 32" fill="none" xmlns="http://www.w3.org/2000/svg">
<path d="M21.7011 18.8257L17.2394 15.4795V8.66308C17.2394 7.97771 16.6854 7.42371 16 7.42371C15.3146 7.42371 14.7606 7.97771 14.7606 8.66308V16.0992C14.7606 16.4896 14.9441 16.8577 15.2564 17.0907L20.2138 20.8088C20.4368 20.9761 20.6971 21.0566 20.9561 21.0566C21.3341 21.0566 21.7059 20.8868 21.9489 20.5596C22.3604 20.013 22.2489 19.236 21.7011 18.8257Z" fill="#FAC269"/>
<path d="M16 0C7.17706 0 0 7.17706 0 16C0 24.8229 7.17706 32 16 32C24.8229 32 32 24.8229 32 16C32 7.17706 24.8229 0 16 0ZM16 29.5213C8.54531 29.5213 2.47869 23.4547 2.47869 16C2.47869 8.54531 8.54531 2.47869 16 2.47869C23.4559 2.47869 29.5213 8.54531 29.5213 16C29.5213 23.4547 23.4547 29.5213 16 29.5213Z" fill="#3F3474"/>
</svg>

<svg xmlns="http://www.w3.org/2000/svg" width="32" height="32" fill="none"  xmlns:v="https://vecta.io/nano"><path d="M21.701 18.826l-4.462-3.346V8.663A1.24 1.24 0 0 0 16 7.424a1.24 1.24 0 0 0-1.239 1.239v7.436c0 .39.184.759.496.991l4.957 3.718a1.23 1.23 0 0 0 1.735-.249c.412-.547.3-1.324-.248-1.734z" fill="#fac269"/><path d="M16 0C7.177 0 0 7.177 0 16s7.177 16 16 16 16-7.177 16-16S24.823 0 16 0zm0 29.521C8.545 29.521 2.479 23.455 2.479 16S8.545 2.479 16 2.479A13.54 13.54 0 0 1 29.521 16c0 7.455-6.067 13.521-13.521 13.521z" fill="#3f3474"/></svg>
